X:119
T:The Walls of Limerick
N:Set (long) Dance   Allan's #119   pp31
N:Trad/Anon
N:CONVERTED FROM NOTEWORTHY COMPOSER  (WWW.NOTEWORTHYSOFTWARE.COM) BY
N:ABC2NWC (HTTP://MEMBERS.AOL.COM/ABACUSMUSIC/), WITH
Z: (INTO NWC) VINCE BRENNAN 2002   (WWW.SOSYOURMOM.COM)
I:abc2nwc
M:2/4
L:1/16
K:G
(GA)|B2B2 cBAG|B2B2B2 (ge)|d2B2 cBAG|B2A2A2 (GA)|
B2B2 cBAG|B2d2g3a|bagf efge|d2B2 B2:|
|:(Bc)|d2B2g2B2|d2d2d3e|d2B2 g2(fg)|a2A2 A2(GA)|
B2B2 cBAG|B2d2 g3a|bagf efge|d2B2 B2:|
K:D
|:(dB)|AFDF AFDF|A2d2 d2(cB)|AFDF AFDF|G2E2 E2(FG)|
AFDF AFDF|A2d2 d3e|fafd egec|d2d2 d2:|
|:(de)|f2(fd) fagf|edcd efge|f2(fd) fagf|edcB A2(de)|
f2(fd) fagf|edcd efge|fafd egec|[1d2d2 d2:|[2d2d2 d4||
K:G
|:G2B2 G2B2|G2B2 cBAG|F2A2 F2A2|F2A2 dcBA|
G2B2 G2B2|G2B2 d4|cBAG FGAc|B2G2 G4:|
|:g2(fe) d2c2|BABc d4|g2(fe) d2c2|BABc A4|
g2(fe) d2c2|BABc d4|cBAG FGAc|B2G2 G4:|
